public/images/logos/svelte.svg

<svg width="28" height="30" viewBox="0 0 28 30" fill="none" xmlns="http://www.w3.org/2000/svg">
<path d="M23.5604 5.30736C21.1112 1.80393 16.2737 0.765488 12.7764 2.99286L6.63462 6.90594C6.22144 7.16555 5.83599 7.46741 5.48529 7.80666C5.13416 8.14591 4.81955 8.52081 4.54629 8.92519C4.27304 9.32956 4.04247 9.76122 3.85811 10.2131C3.67419 10.6652 3.53764 11.1352 3.45065 11.6155C3.37805 12.0181 3.33844 12.4264 3.33316 12.8356C3.32744 13.2453 3.35605 13.6545 3.41809 14.0589C3.48013 14.4637 3.57561 14.8628 3.70322 15.2518C3.83082 15.6407 3.99055 16.0183 4.18064 16.3809C4.04987 16.5796 3.92916 16.7847 3.81894 16.9956C3.7085 17.2063 3.60906 17.4228 3.52061 17.6437C3.43217 17.8646 3.35517 18.0899 3.2896 18.3187C3.22404 18.5475 3.17036 18.7794 3.12812 19.0135C2.95259 19.9979 2.97578 21.0074 3.19632 21.9827C3.30632 22.4689 3.46429 22.9433 3.66846 23.3983C3.87263 23.8532 4.12124 24.2871 4.41165 24.6928C6.86079 28.1962 11.6979 29.2347 15.1952 27.0073L21.337 23.1105C21.7501 22.8504 22.1347 22.5481 22.4854 22.2085C22.836 21.869 23.1506 21.4942 23.424 21.0899C23.6972 20.686 23.9278 20.2543 24.1121 19.8024C24.2965 19.351 24.4334 18.881 24.5209 18.401C24.5935 17.9984 24.6327 17.5905 24.638 17.1812C24.6432 16.772 24.6146 16.3628 24.5522 15.9584C24.4901 15.5541 24.3946 15.1554 24.2666 14.7664C24.1385 14.3779 23.9788 14.0004 23.7887 13.6378C23.9194 13.4393 24.0404 13.2338 24.1509 13.0231C24.2609 12.8123 24.3608 12.5958 24.4492 12.3749C24.5376 12.154 24.6151 11.9288 24.6811 11.6999C24.7467 11.4716 24.8012 11.2397 24.8439 11.0056C24.931 10.5145 24.9689 10.016 24.9574 9.51745C24.946 9.01891 24.8848 8.52301 24.7748 8.03635C24.6648 7.55013 24.5068 7.07579 24.3027 6.62081C24.0988 6.16576 23.8501 5.73211 23.5604 5.32628" fill="#FF3E00"/>
<path d="M12.1763 25.0316C11.6956 25.1564 11.1987 25.2072 10.7027 25.1821C10.2068 25.1565 9.71751 25.0562 9.25197 24.8833C8.78641 24.7106 8.34989 24.468 7.95743 24.1639C7.5653 23.8595 7.22182 23.4971 6.93879 23.0893C6.7641 22.8451 6.6145 22.5846 6.49217 22.3109C6.36949 22.0374 6.27442 21.7523 6.20836 21.4599C6.1428 21.1673 6.10584 20.869 6.09924 20.5693C6.09264 20.2697 6.11596 19.97 6.16876 19.6748C6.17712 19.6268 6.1868 19.5789 6.19736 19.5313C6.20748 19.4834 6.21892 19.4359 6.23124 19.3888C6.24312 19.3413 6.25632 19.2942 6.2704 19.2471C6.28404 19.2004 6.29901 19.1538 6.31441 19.1076L6.43013 18.7543L6.74562 18.9897C6.92647 19.1217 7.11304 19.2462 7.30445 19.3624C7.49585 19.479 7.6921 19.5872 7.89275 19.6867C8.09296 19.7866 8.29801 19.8781 8.50614 19.9604C8.71426 20.0431 8.92591 20.1166 9.14064 20.1812L9.37605 20.2494L9.35493 20.4849C9.34358 20.6451 9.36026 20.806 9.40421 20.9605C9.42577 21.038 9.45438 21.1128 9.48914 21.1849C9.5239 21.2571 9.56482 21.3262 9.61146 21.3913C9.69692 21.5141 9.80064 21.6232 9.91903 21.7147C10.037 21.8062 10.1685 21.8793 10.3089 21.9312C10.4493 21.9831 10.5962 22.013 10.7458 22.0205C10.895 22.0284 11.0446 22.013 11.1894 21.9752C11.2228 21.9664 11.2554 21.9563 11.2879 21.9448C11.3205 21.9334 11.3526 21.9211 11.3839 21.907C11.4155 21.8934 11.4463 21.8784 11.4771 21.8621C11.5075 21.8463 11.537 21.8291 11.566 21.8106L17.6986 17.8971C17.7737 17.85 17.8438 17.7951 17.9076 17.7334C17.9714 17.6714 18.0281 17.6032 18.0779 17.5297C18.1276 17.4562 18.1689 17.3774 18.2024 17.2952C18.2354 17.2129 18.26 17.1275 18.2759 17.0404C18.2913 16.9511 18.2979 16.8609 18.2957 16.7702C18.2935 16.68 18.282 16.5903 18.2618 16.5018C18.242 16.4138 18.2129 16.328 18.1755 16.2453C18.1386 16.163 18.0928 16.0847 18.04 16.0112C17.9546 15.8884 17.8512 15.7797 17.7329 15.6882C17.6145 15.5967 17.4829 15.5237 17.343 15.4717C17.2028 15.4198 17.0554 15.3895 16.9061 15.382C16.7565 15.3745 16.6069 15.3899 16.4621 15.4273C16.4291 15.4361 16.3961 15.4462 16.3635 15.4577C16.331 15.4691 16.2993 15.4814 16.2676 15.4951C16.2359 15.5091 16.2051 15.5241 16.1748 15.5404C16.1444 15.5562 16.1145 15.5738 16.0854 15.5923L13.7305 17.0875C13.6345 17.1482 13.536 17.2054 13.4357 17.2591C13.3349 17.3123 13.2328 17.362 13.1285 17.4078C13.0242 17.4536 12.9182 17.4954 12.8108 17.5328C12.7035 17.5706 12.5948 17.6041 12.4848 17.6335C12.0047 17.7576 11.5088 17.8078 11.0138 17.7823C10.5188 17.7567 10.0308 17.656 9.56614 17.4839C9.10148 17.3114 8.66586 17.069 8.27425 16.7654C7.88263 16.4618 7.53942 16.1005 7.25648 15.6935C7.08268 15.4493 6.93351 15.1884 6.81163 14.9147C6.6893 14.641 6.5947 14.3558 6.52913 14.0637C6.46357 13.7711 6.42749 13.4727 6.42133 13.1731C6.41473 12.8739 6.43805 12.5742 6.49129 12.2794C6.59532 11.699 6.81922 11.1466 7.14868 10.6575C7.47837 10.1684 7.90655 9.75358 8.40581 9.43952L14.5573 5.52644C14.6528 5.46572 14.7504 5.40852 14.8503 5.35483C14.9502 5.30159 15.0523 5.25187 15.1557 5.20611C15.2593 5.16033 15.3647 5.11864 15.4716 5.08114C15.5781 5.0433 15.6864 5.00942 15.7959 4.97994C16.2764 4.85541 16.7732 4.80437 17.2687 4.82945C17.7646 4.85497 18.2534 4.9553 18.719 5.12822C19.1845 5.30071 19.6206 5.5436 20.013 5.84765C20.4051 6.15221 20.7484 6.51468 21.0313 6.92262C21.2055 7.16639 21.3555 7.42688 21.4783 7.70057C21.6011 7.97426 21.6961 8.25895 21.7626 8.55157C21.8286 8.84418 21.8655 9.14251 21.8721 9.44216C21.8792 9.74182 21.8563 10.0415 21.8035 10.3367C21.7942 10.3851 21.7846 10.4335 21.7736 10.4815C21.763 10.5294 21.7516 10.5774 21.7392 10.6249C21.7274 10.6729 21.7142 10.7204 21.7005 10.7675C21.6869 10.815 21.6728 10.8621 21.6574 10.9087L21.5399 11.2621L21.2266 11.0267C21.0453 10.8933 20.8583 10.7684 20.6665 10.6509C20.4746 10.5338 20.2775 10.4247 20.0764 10.324C19.6738 10.1231 19.2551 9.95651 18.8246 9.82586L18.5887 9.75766L18.6103 9.52225C18.6169 9.44172 18.6164 9.36076 18.609 9.28068C18.6019 9.20059 18.5874 9.12095 18.5663 9.04307C18.5447 8.96562 18.517 8.8895 18.4822 8.8169C18.4479 8.74385 18.407 8.67433 18.3603 8.60833C18.2745 8.48773 18.1708 8.3809 18.0528 8.29151C17.9349 8.20172 17.8041 8.13049 17.6647 8.08031C17.3846 7.9787 17.0802 7.96503 16.7921 8.04114C16.7587 8.04994 16.7257 8.06007 16.6936 8.07107C16.661 8.08251 16.6289 8.09527 16.5972 8.10891C16.5659 8.12255 16.5347 8.13795 16.5043 8.15379C16.474 8.17007 16.4441 8.18723 16.415 8.20571L10.271 12.1122C10.1962 12.1593 10.1263 12.2143 10.0629 12.2759C9.99956 12.3375 9.94236 12.4057 9.89263 12.4787C9.84333 12.5522 9.80161 12.6305 9.76811 12.7124C9.73467 12.7947 9.71003 12.8796 9.69419 12.9667C9.67878 13.056 9.67218 13.1467 9.67438 13.2373C9.67966 13.4188 9.72047 13.5974 9.79451 13.7631C9.83184 13.8456 9.87708 13.9243 9.92959 13.9981C10.0145 14.1196 10.1175 14.2278 10.235 14.3184C10.3522 14.4095 10.4826 14.4822 10.6217 14.5341C10.9015 14.6381 11.2062 14.6548 11.4956 14.582C11.5286 14.5728 11.5616 14.5627 11.5942 14.5512C11.6263 14.5398 11.6584 14.527 11.6901 14.5134C11.7216 14.4997 11.7526 14.4847 11.783 14.4685C11.8133 14.4527 11.8432 14.4355 11.8723 14.417L14.2273 12.9245C14.3236 12.8629 14.4217 12.8048 14.5225 12.7511C14.6228 12.697 14.7254 12.6473 14.8301 12.6011C14.9345 12.5553 15.0406 12.5136 15.1482 12.4761C15.256 12.4382 15.3651 12.4048 15.4756 12.3758C15.9561 12.2508 16.4524 12.1998 16.9483 12.2244C17.4442 12.2495 17.9331 12.3498 18.3986 12.5223C18.8637 12.6948 19.3002 12.9372 19.6923 13.2417C20.0848 13.5458 20.428 13.9079 20.7109 14.3158C20.8852 14.56 21.0348 14.8205 21.1575 15.0942C21.2803 15.3677 21.3755 15.6528 21.4418 15.9452C21.5078 16.2374 21.5448 16.5357 21.5518 16.8353C21.5588 17.1354 21.5355 17.4351 21.4832 17.7299C21.4313 18.0194 21.3494 18.3026 21.2389 18.5752C21.1286 18.8478 20.9899 19.1081 20.8253 19.3518C20.6612 19.5956 20.472 19.8218 20.2608 20.0264C20.0496 20.231 19.8177 20.4131 19.5686 20.5698L13.4242 24.4829C13.3279 24.544 13.2293 24.6017 13.129 24.6554C13.0282 24.709 12.9257 24.7588 12.821 24.8045C12.7167 24.8507 12.6106 24.8925 12.5028 24.9304C12.3955 24.9682 12.2863 25.0021 12.1763 25.0316Z" fill="white"/>
</svg>

<svg xmlns="http://www.w3.org/2000/svg" width="28" height="30" fill="none" xmlns:v="https://vecta.io/nano"><path d="M23.56 5.307C21.111 1.804 16.274.765 12.776 2.993L6.635 6.906a7.04 7.04 0 0 0-1.149.901 7.02 7.02 0 0 0-.939 1.119 7.07 7.07 0 0 0-.688 1.288 7.06 7.06 0 0 0-.407 1.402c-.073.403-.112.811-.117 1.22a7.39 7.39 0 0 0 .085 1.223c.062.405.158.804.285 1.193a7.4 7.4 0 0 0 .477 1.129 7.1 7.1 0 0 0-.362.615c-.11.211-.21.427-.298.648s-.165.446-.231.675-.119.461-.161.695c-.176.984-.152 1.994.068 2.969a7.5 7.5 0 0 0 1.215 2.71c2.449 3.503 7.286 4.542 10.784 2.315l6.142-3.897a7.05 7.05 0 0 0 1.148-.902 7.07 7.07 0 0 0 .939-1.119 7.05 7.05 0 0 0 1.097-2.689c.073-.403.112-.811.117-1.22s-.023-.818-.086-1.223-.158-.803-.286-1.192-.288-.766-.478-1.129c.131-.199.252-.404.362-.615a7.12 7.12 0 0 0 .298-.648c.088-.221.166-.446.232-.675a7.18 7.18 0 0 0 .163-.694c.087-.491.125-.99.113-1.488s-.073-.994-.183-1.481-.268-.961-.472-1.416-.453-.889-.742-1.295" fill="#ff3e00"/><path d="M12.176 25.032a4.88 4.88 0 0 1-1.474.15 4.89 4.89 0 0 1-2.745-1.018 4.89 4.89 0 0 1-1.019-1.075 4.48 4.48 0 0 1-.447-.778c-.123-.273-.218-.559-.284-.851a4.53 4.53 0 0 1-.109-.891c-.007-.3.017-.599.07-.894l.029-.143.034-.143.039-.142.044-.139.116-.353.315.235.559.373.588.324.613.274.634.221.235.068-.021.235a1.38 1.38 0 0 0 .049.476 1.35 1.35 0 0 0 .085.224 1.39 1.39 0 0 0 .122.206 1.47 1.47 0 0 0 .308.323c.118.091.249.165.39.216a1.47 1.47 0 0 0 .437.089 1.45 1.45 0 0 0 .444-.045l.099-.03.096-.038.093-.045.089-.052 6.133-3.914c.075-.047.145-.102.209-.164a1.3 1.3 0 0 0 .17-.204 1.28 1.28 0 0 0 .125-.234c.033-.082.058-.168.073-.255a1.39 1.39 0 0 0 .02-.27c-.002-.09-.014-.18-.034-.268a1.33 1.33 0 0 0-.086-.256c-.037-.082-.083-.161-.136-.234-.085-.123-.189-.231-.307-.323s-.25-.165-.39-.216a1.47 1.47 0 0 0-.437-.09 1.48 1.48 0 0 0-.444.045l-.099.03-.096.037-.093.045-.089.052-2.355 1.495-.295.172-.307.149-.318.125-.326.101c-.48.124-.976.174-1.471.149s-.983-.126-1.448-.298a4.88 4.88 0 0 1-1.292-.718c-.392-.304-.735-.665-1.018-1.072a4.5 4.5 0 0 1-.445-.779c-.122-.274-.217-.559-.282-.851s-.102-.591-.108-.891.017-.599.07-.894c.104-.58.328-1.133.657-1.622s.758-.904 1.257-1.218l6.151-3.913.293-.172.305-.149.316-.125.324-.101c.48-.125.977-.176 1.473-.15s.985.126 1.45.299.902.415 1.294.719a4.89 4.89 0 0 1 1.018 1.075c.174.244.324.504.447.778a4.53 4.53 0 0 1 .284.851 4.5 4.5 0 0 1 .11.891 4.48 4.48 0 0 1-.069.895l-.03.145-.034.143-.039.143-.043.141-.117.353-.313-.235-.56-.376-.59-.327a8.02 8.02 0 0 0-1.252-.498l-.236-.068.022-.235a1.39 1.39 0 0 0-.001-.242c-.007-.08-.022-.16-.043-.238s-.049-.154-.084-.226-.075-.143-.122-.209c-.086-.121-.189-.227-.307-.317a1.45 1.45 0 0 0-.388-.211c-.28-.102-.584-.115-.873-.039l-.099.03-.096.038-.093.045-.089.052-6.144 3.906a1.27 1.27 0 0 0-.208.164 1.32 1.32 0 0 0-.17.203 1.31 1.31 0 0 0-.125.234c-.033.082-.058.167-.074.254s-.022.18-.02.271a1.39 1.39 0 0 0 .12.526c.037.082.083.161.135.235a1.46 1.46 0 0 0 .305.32c.117.091.248.164.387.216.28.104.585.121.874.048l.099-.031.096-.038.093-.045.089-.052 2.355-1.492.295-.173.308-.15.318-.125.327-.1c.48-.125.977-.176 1.473-.151s.985.125 1.45.298a4.87 4.87 0 0 1 1.294.719c.393.304.736.666 1.019 1.074a4.53 4.53 0 0 1 .447.778c.123.273.218.559.284.851a4.52 4.52 0 0 1 .041 1.785c-.052.29-.134.573-.244.845s-.249.533-.414.777a4.22 4.22 0 0 1-.564.675 4.24 4.24 0 0 1-.692.543l-6.144 3.913-.295.172-.308.149-.318.126-.327.101z" fill="#fff"/></svg>
